public/images/file-maker/feature3.svg

<svg width="56" height="64" viewBox="0 0 56 64" fill="none" xmlns="http://www.w3.org/2000/svg">
<g clip-path="url(#clip0)">
<path d="M52.102 26.0098C52.102 23.8724 50.357 22.1274 48.2197 22.1274H28.147C26.0096 22.1274 24.2646 23.8724 24.2646 26.0098V27.5895V60.1664C24.2646 62.3037 26.0096 64.0487 28.147 64.0487H48.2197C50.357 64.0487 52.102 62.3037 52.102 60.1664V59.1338C52.102 59.1338 52.102 59.1338 52.102 59.1235V26.0098ZM43.7384 23.6865L43.5319 24.3887C43.377 24.9359 42.8608 25.3179 42.2929 25.3179H34.0738C33.5059 25.3179 32.9896 24.9359 32.8348 24.3887L32.6283 23.6865H43.7384ZM50.5532 60.1767C50.5532 61.457 49.5104 62.4999 48.23 62.4999H28.147C26.8667 62.4999 25.8238 61.457 25.8238 60.1767V35.4472V26.0201C25.8238 24.7397 26.8667 23.6968 28.147 23.6968H31.0072L31.3376 24.843C31.6886 26.0511 32.8141 26.8874 34.0635 26.8874H42.2825C43.5422 26.8874 44.6574 26.0407 45.0085 24.843L45.3389 23.7072H48.2197C49.5 23.7072 50.5429 24.75 50.5429 26.0304V51.3071V60.1767H50.5532Z" fill="#FF6B00"/>
<path d="M42.52 58.3594H33.8467C33.4233 58.3594 33.0723 58.7104 33.0723 59.1338C33.0723 59.5571 33.4233 59.9082 33.8467 59.9082H42.52C42.9537 59.9082 43.2944 59.5571 43.2944 59.1338C43.2944 58.7104 42.9537 58.3594 42.52 58.3594Z" fill="#FF6B00"/>
<path fill-rule="evenodd" clip-rule="evenodd" d="M4.56753 2.44708C4.75835 2.06839 5.21129 1.89991 5.60597 2.06081L17.4208 6.87743C17.7998 7.03195 18.0042 7.44173 17.8982 7.83448L16.446 13.2139L21.4992 15.3083C21.787 15.4275 21.981 15.6994 21.9987 16.0084C22.0164 16.3174 21.8548 16.6093 21.5825 16.7602L14.116 20.8974C13.8704 21.0335 13.5713 21.0342 13.325 20.8993L3.3021 15.4088C3.11647 15.3071 2.9781 15.1376 2.91638 14.9364L0.0353155 5.54068C-0.0578541 5.23684 0.0368853 4.90701 0.277493 4.69756C0.518101 4.48812 0.860005 4.43785 1.15149 4.56906L5.18825 6.38628C5.2427 6.20735 5.35885 6.05008 5.5203 5.94463C5.74927 5.79507 6.03868 5.76979 6.29047 5.87734L9.82079 7.38529C10.1197 7.51298 10.3134 7.80495 10.3134 8.12791V8.53925L12.1133 9.36616C12.3515 9.47555 12.5219 9.69204 12.5713 9.94776L13.8509 16.5775L16.1386 8.10291L5.68667 3.84188L5.2103 4.78724L3.75271 4.06409L4.56753 2.44708ZM12.5917 18.6506L11.0494 10.6593L9.15627 9.78956C8.86819 9.65721 8.6838 9.37088 8.6838 9.05587V8.6601L6.75491 7.83619C6.70291 8.02706 6.58134 8.1951 6.40967 8.30487C6.17689 8.45372 5.88385 8.47506 5.63166 8.36153L2.11877 6.78014L4.37919 14.1518L12.5917 18.6506ZM15.0046 18.553L19.3245 16.1593L16.0205 14.79L15.0046 18.553Z" fill="#FF6B00"/>
<path fill-rule="evenodd" clip-rule="evenodd" d="M3.40944 21C2.96752 22.7844 2.74657 24.6139 2.74657 26.4433C2.74657 29.5719 3.39707 32.7108 4.69808 35.6226C3.79331 36.1471 2.88855 36.6674 1.98642 37.1862C1.4678 37.4845 0.950045 37.7823 0.433669 38.08C0.175532 38.2039 0 38.4724 0 38.7718V47.6517C0 47.9305 0.144556 48.1783 0.382041 48.3229C1.15414 48.7686 1.92625 49.2162 2.69864 49.6639C4.46726 50.6892 6.2374 51.7154 8.01254 52.7215C8.35328 52.9177 8.61142 52.897 8.91086 52.7215C11.4406 51.2656 13.96 49.8097 16.4897 48.3435C16.7479 48.2196 16.9234 47.9512 16.9234 47.6517V47.342C17.6565 47.6311 18.4103 47.8892 19.1743 48.0957C19.639 48.2196 20.1036 47.8995 20.1346 47.4142V47.3833C20.1656 47.0322 19.9281 46.7121 19.5874 46.6089C18.6891 46.361 17.8011 46.041 16.9337 45.6692V38.7718C16.9337 38.4931 16.7892 38.2452 16.5517 38.1007L13.9187 36.5828C13.547 36.366 13.072 36.4899 12.8655 36.8616C12.6487 37.2333 12.7829 37.7083 13.1443 37.9148L14.6208 38.7718L8.46686 42.3238L2.32322 38.7718C3.34544 38.1781 4.37024 37.587 5.39504 36.9959C6.41984 36.4047 7.44464 35.8136 8.46686 35.2199L10.0983 36.1595C10.47 36.366 10.9346 36.2421 11.1515 35.8704C11.358 35.4987 11.2341 35.034 10.8624 34.8172L8.85923 33.6607C8.63207 33.5265 8.33263 33.5162 8.08482 33.6504L6.05071 34.8275C4.88393 32.1532 4.29538 29.2931 4.29538 26.4329C4.29538 24.6051 4.53404 22.7772 5.00867 21H3.40944ZM20 6.14813C21.7112 5.7061 23.4661 5.48261 25.2251 5.48261C28.0749 5.47229 30.9144 6.05051 33.5783 7.19663V14.094C33.5783 14.3728 33.7229 14.6206 33.9604 14.7652C35.2303 15.4982 36.5028 16.2313 37.7753 16.9643C39.048 17.6975 40.3208 18.4307 41.5909 19.1638C41.88 19.329 42.2001 19.329 42.4892 19.1638L45.8037 17.2536C46.7083 16.7292 47.6129 16.2089 48.5149 15.6902C49.0337 15.3918 49.5516 15.094 50.0681 14.7962C50.3262 14.6723 50.5017 14.4038 50.5017 14.1044L50.4914 5.22447C50.4914 4.94569 50.3469 4.68755 50.099 4.55332L47.6003 3.09743C47.2286 2.89092 46.7639 3.01483 46.5471 3.38655C46.3406 3.75826 46.4645 4.22291 46.8362 4.43974L48.1888 5.21415L42.0452 8.7661L35.9016 5.21415C36.9238 4.62044 37.9486 4.02931 38.9734 3.43818C39.9982 2.84705 41.023 2.25591 42.0452 1.6622L43.8005 2.67409C44.1722 2.8806 44.6472 2.75669 44.8537 2.38498C45.0706 2.01326 44.9363 1.54862 44.5646 1.33178L42.4272 0.103055C42.2001 -0.0311759 41.9006 -0.0415013 41.6528 0.0927294C39.1025 1.56925 36.5521 3.03545 34.0018 4.50164L34.0017 4.50169C33.7435 4.6256 33.568 4.89406 33.568 5.1935V5.50326C30.8937 4.43974 28.0542 3.91314 25.2147 3.91314C23.4617 3.91314 21.7127 4.12079 20 4.53113V6.14813ZM48.9426 6.54613L42.8093 10.0981H42.799V17.202C43.4093 16.8493 44.0188 16.4974 44.6277 16.146C46.0684 15.3143 47.5055 14.4847 48.9426 13.65V6.54613ZM41.2605 10.0981L35.1168 6.55646V13.65C35.7273 14.0029 36.337 14.3548 36.9459 14.7063C38.3865 15.5379 39.8235 16.3674 41.2605 17.202V10.0981ZM3.37871 48.2644C4.81901 49.0959 6.25573 49.9252 7.69245 50.7597V43.6558L1.54882 40.1038V47.2077C2.1596 47.5607 2.76948 47.9128 3.37871 48.2644ZM11.0706 49.7136C12.5111 48.8821 13.948 48.0526 15.3849 47.2181V40.1141L9.24127 43.6661V50.77C9.85186 50.4172 10.4615 50.0652 11.0706 49.7136Z" fill="#7F8284"/>
</g>
<defs>
<clipPath id="clip0">
<rect width="55.7714" height="64" fill="white"/>
</clipPath>
</defs>
</svg>

<svg xmlns="http://www.w3.org/2000/svg" width="56" height="64" fill="none" xmlns:v="https://vecta.io/nano"><g clip-path="url(#A)"><g fill="#ff6b00"><path d="M52.102 26.01c0-2.137-1.745-3.882-3.882-3.882H28.147c-2.137 0-3.882 1.745-3.882 3.882v1.58 32.577c0 2.137 1.745 3.882 3.882 3.882H48.22c2.137 0 3.882-1.745 3.882-3.882v-1.033V26.01zm-8.364-2.323l-.206.702c-.155.547-.671.929-1.239.929h-8.219c-.568 0-1.084-.382-1.239-.929l-.206-.702h11.11zm6.815 36.49A2.33 2.33 0 0 1 48.23 62.5H28.147a2.33 2.33 0 0 1-2.323-2.323v-24.73-9.427a2.33 2.33 0 0 1 2.323-2.323h2.86l.33 1.146c.351 1.208 1.477 2.044 2.726 2.044h8.219c1.26 0 2.375-.847 2.726-2.044l.33-1.136h2.881a2.33 2.33 0 0 1 2.323 2.323v25.277 8.87h.01zm-8.033-1.818h-8.673a.78.78 0 0 0-.774.774.78.78 0 0 0 .774.774h8.673c.434 0 .774-.351.774-.774s-.341-.774-.774-.774z"/><g fill-rule="evenodd"><path d="M4.568 2.447c.191-.379.644-.547 1.038-.386l11.815 4.817c.379.155.583.564.477.957l-1.452 5.379 5.053 2.094a.81.81 0 0 1 .5.7c.018.309-.144.601-.416.752l-7.466 4.137a.82.82 0 0 1-.791.002L3.302 15.409a.81.81 0 0 1-.386-.472L.035 5.541c-.093-.304.002-.634.242-.843a.82.82 0 0 1 .874-.128l4.037 1.817a.81.81 0 0 1 .332-.442.82.82 0 0 1 .77-.067l3.53 1.508a.81.81 0 0 1 .493.743v.411l1.8.827a.81.81 0 0 1 .458.582l1.28 6.63 2.288-8.475L5.687 3.842l-.476.945-1.458-.723.815-1.617zm8.024 16.204l-1.542-7.991-1.893-.87a.81.81 0 0 1-.472-.734V8.66l-1.929-.824a.81.81 0 0 1-.345.469.82.82 0 0 1-.778.057L2.119 6.78l2.26 7.372 8.213 4.499zm2.413-.098l4.32-2.394-3.304-1.369-1.016 3.763z"/></g></g><path fill-rule="evenodd" d="M3.409 21a22.65 22.65 0 0 0-.663 5.443c0 3.129.65 6.267 1.952 9.179l-2.712 1.564-1.553.894a.77.77 0 0 0-.434.692v8.88a.78.78 0 0 0 .382.671l2.317 1.341 5.314 3.058a.79.79 0 0 0 .898 0l7.579-4.378a.77.77 0 0 0 .434-.692v-.31c.733.289 1.487.547 2.251.754.465.124.929-.196.96-.681v-.031c.031-.351-.206-.671-.547-.774-.898-.248-1.786-.568-2.654-.94v-6.897a.78.78 0 0 0-.382-.671l-2.633-1.518c-.372-.217-.847-.093-1.053.279a.77.77 0 0 0 .279 1.053l1.476.857-6.154 3.552-6.144-3.552 3.072-1.776 3.072-1.776 1.631.94c.372.206.836.083 1.053-.289.207-.372.083-.836-.289-1.053l-2.003-1.157c-.227-.134-.527-.145-.774-.01l-2.034 1.177c-1.167-2.674-1.755-5.534-1.755-8.395 0-1.828.239-3.656.713-5.433H3.409zM20 6.148a20.89 20.89 0 0 1 5.225-.666 20.93 20.93 0 0 1 8.353 1.714v6.897a.78.78 0 0 0 .382.671l3.815 2.199 3.816 2.199c.289.165.609.165.898 0l3.315-1.91 2.711-1.563 1.553-.894a.77.77 0 0 0 .434-.692l-.01-8.88c0-.279-.145-.537-.392-.671L47.6 3.097c-.372-.207-.836-.083-1.053.289-.206.372-.083.836.289 1.053l1.353.774-6.144 3.552-6.144-3.552 3.072-1.776 3.072-1.776 1.755 1.012c.372.207.847.083 1.053-.289.217-.372.083-.836-.289-1.053L42.427.103c-.227-.134-.527-.145-.774-.01l-7.651 4.409h0a.77.77 0 0 0-.434.692v.31c-2.674-1.064-5.514-1.59-8.353-1.59-1.753 0-3.502.208-5.215.618v1.617zm28.943.398l-6.133 3.552h-.01v7.104l1.829-1.056 4.315-2.496V6.546zm-7.682 3.552l-6.144-3.542v7.094l1.829 1.056 4.315 2.496v-7.104zM3.379 48.264l4.314 2.495v-7.104l-6.144-3.552v7.104l1.83 1.057zm7.692 1.449l4.314-2.495v-7.104l-6.144 3.552v7.104l1.829-1.056z" fill="#7f8284"/></g><defs><clipPath id="A"><path fill="#fff" d="M0 0h55.771v64H0z"/></clipPath></defs></svg>
